X:407
T:Rolling Waves, The
T:Maguire's Kick
R:jig
Z:hn-jig-407
M:6/8
L:1/8
K:D
F2E EDE|F2D DED|F2E EFA|d2e fdA|
F2E EDE|F2D DED|AFE EFA|B3 d3:|
|:ABd e2f|d2c B2A|ABd e2f|dcA B3|
ABd ede|fdB BAF|AFE EFA|B3 d3:|

